X: 894
T: Görmedim Ömrümün...
C: Kadri Şençalar
O: Turkey
F: http://compmusic.upf.edu/node/140
N: hicaz--sarki--aksak--gormedim_omrumun--kadri_sencalar
N: makam= hicaz
N: form= sarki
N: usul= aksak = 9/8
M: 9/8
L: 1/16
K: C _7/8B ^f ^c 
Q: 1/4=108
%%MIDI tuningsystem comma53
A4 (3dcBBB/A/ A2{B}AG ABcd dc | {d}c3/4d1/4c/B/ B/A/B/A/(3=fed d2(3dcB BAA4Bc  | 
w:  (Ah)  Gör *  *  *  me *  dim  *  *  *  öm  |  *  *  *  *  *  *  *  *  *  rü *  *  mün  â *  *  *  *  sû  | 
A4 G2A2 A2{B}AG ABcd e^2/4f | ge {=f}edd3/4^f1/4e/d/ d2d4dc BcBA  | 
w:  *  de  ge çen  *  *  *  bir   |  *  *  *  *  *  de *  *  *  mi ni   SAZ  | 
A4 (3dcBBB/A/ A2{B}AG ABcd dc | {d}c3/4d1/4c/B/ B/A/B/A/(3=fed d2(3dcB BAA4Bc  | 
w:  (Ah)  Gör *  *  *  me *  dim  *  *  *  öm  |  *  *  *  *  *  *  *  *  *  rü *  *  mün  â *  *  *  *  sû  | 
A4 G2A2 A2{B}AG ABcd e^2/4f | ge {=f}edd3/4^f1/4e/d/ d2d4e=f/g/ e/f/ded/c/  | 
w:  *  de  ge çen  *  *  *  bir   |  *  *  *  *  *  de *  *  *  mi ni   SAZ  | 
d4 efgf g4 gf{g}fg fe | e3/4g1/4=f/e/ {f}d/{e}c/def fee2 edde2d(3dcd  | 
w:  *  Çe *  ke *  rim  hep   |  *  *  *  *  *  *  *  *  *  o  *  si *  yah  *  *  göz  | 
c3/4d1/4c/B/B/A/B cdd3/4=f1/4e/d/ d4 {c}d3/2c/BA Bc | \
w:  *  *  *  *  *  *  *  le *  ri *  *  *  nin  *  ma  | 
cB BAA2 A2A4e=f/g/ f/e/ded/c/  | 
w:  *  *  *  *  te mi ni   SAZ  | 
d4 efgf g4 gf{g}fg fe | e3/4g1/4=f/e/ {f}d/{e}c/def fee2 edde2d(3dcd  | 
w:  *  Çe *  ke *  rim  hep   |  *  *  *  *  *  *  *  *  *  o  *  si *  yah  *  *  göz  | 
c3/4d1/4c/B/B/A/B cdd3/4=f1/4e/d/ d4 {c}d3/2c/BA Bc | \
w:  *  *  *  *  *  *  *  le *  ri *  *  *  nin  *  ma  | 
cB BAA2 A2A4a_2/4b agfg  | 
w:  *  *  *  *  te mi ni   SAZ  | 
a4 zg2a a4 a2g2 f/e/f | a3/2g/ a2ag ggg=f fee4fe  | 
w:  *  Has re tiy le   |  *  *  *  in *  *  le di *  *  *  ğim   | 
e3d zc2d d/c/BBA ABcd e^2/4f | ge2dd2 d2d4a_2/4b agfg  | 
w:  *  *  çek ti  ben *  *  *  *  den   |  *  *  *  e li ni   SAZ  | 
a4 zg2a a4 a2g2 f/e/f | a3/2g/ a2ag ggg=f fee4fe  | 
w:  *  Has re tiy le   |  *  *  *  in *  *  le di *  *  *  ğim   | 
e3d zc2d d/c/BBA ABcd e^2/4f | ge edd3/4f1/4e/d/ d2d4e=f/g/ f/e/ded/c/  | 
w:  *  *  çek ti  ben *  *  *  *  den   |  *  *  *  *  e *  *  *  li ni   SAZ  | 
d4 efgf g4 gf{g}fg fe | e3/4g1/4=f/e/ {f}d/{e}c/def fee2 edde2d(3dcd  | 
w:  *  Çe *  ke *  rim  hep   |  *  *  *  *  *  *  *  *  *  o  *  si *  yah  *  *  göz  | 
c3/4d1/4c/B/B/A/B cdd3/4=f1/4e/d/ d4 {c}d3/2c/BA Bc | \
w:  *  *  *  *  *  *  *  le *  ri *  *  *  nin  *  ma  | 
cB BAA2 A2A4e=f/g/ f/e/ded/c/  | 
w:  *  *  *  *  te mi ni   SAZ  | 
d4 efgf g4 gf{g}fg fe | e3/4g1/4=f/e/ {f}d/{e}c/def fee2 edde2d(3dcd  | 
w:  *  Çe *  ke *  rim  hep   |  *  *  *  *  *  *  *  *  *  o  *  si *  yah  *  *  göz  | 
c3/4d1/4c/B/B/A/B cdd3/4=f1/4e/d/ d4 {c}d3/2c/BA Bc | \
w:  *  *  *  *  *  *  *  le *  ri *  *  *  nin  *  ma  | 
cB BAA2 A2A4|
w:  *  *  *  *  te mi ni    | 


